X: 21
T:Rights of Man, The
M:4/4
L:1/8
R:Hornpipe
K:EMin
GA||:BcAB GAFG|EFGA B2ef|gfed edBd|cBAG A2GA|!
"var."(3BcB (3ABA (3GAG (3FGF|EFGA Bdef|gfed Bgfg|1e2E2 E2GA:||2e2E
2 E2ga|!
|:bgbg efga|bgbg egfe|d2d^c defg|afdf a2gf|!
edef gfga|bgaf gfef|gfed Bgfg|1e2E2 E2ga:||2e2E2 E2GA||!
